!!!COM: Joplin, Scott
!!!CDT: 1868/11/24/-1917/04/01/
!!!OTL: Swipsey
!!!ODT: 1902///
**kern	**kern	**dynam
*staff2	*staff1	*staff1/2
*Ipiano	*Ipiano	*Ipiano
*>[I,A,A1,A,A2,B,B1,B,B2,C,D,D1,D,D2,E,E1,E,E2]	*>[I,A,A1,A,A2,B,B1,B,B2,C,D,D1,D,D2,E,E1,E,E2]	*>[I,A,A1,A,A2,B,B1,B,B2,C,D,D1,D,D2,E,E1,E,E2]
*>norep[I,A,A2,B,B2,C,D,D2,E,E2]	*>norep[I,A,A2,B,B2,C,D,D2,E,E2]	*>norep[I,A,A2,B,B2,C,D,D2,E,E2]
*>I	*>I	*>I
*clefF4	*clefG2	*clefG2
*k[b-e-]	*k[b-e-]	*k[b-e-]
*M2/4	*M2/4	*M2/4
*MM100	*MM100	*MM100
=1-	=1-	=1-
16F\LK	16f\LK	f
8f^\	8ff^\	.
16c#\Jk	16cc#\Jk	.
8d\L	8dd\L	.
8cn\J	8ccn\J	.
=2	=2	=2
8B-\L	8b-/L	.
8D\J	8d/J	.
8E-\L	8e-/L	.
8En\J	8en/J	.
=3	=3	=3
16F\LK	16f/LK	.
8B-^\	8b-^/	.
16G#\Jk	16g#/Jk	.
8A\L	8a/L	.
8Gn\J	8gn/J	.
=4	=4	=4
8F\L	8f\L	.
8D\ 8d\J	8ff\J	.
8D-\ 8d-\L	8een\ 8gg\L	.
8C\ 8c\J	8ee-\ 8aa\J	.
=5!|:	=5!|:	=5!|:
*>A	*>A	*>A
8BB-\ 8B-\L	16dd\ 16bb-\LK	.
.	8dd\ 8bb-\	.
8F\ 8B-\ 8d\J	.	.
.	16ff\Jk	.
8FF\L	16aa\LL	.
.	16gg\	.
8F\ 8d\ 8f\J	16ff\	.
.	16dd\JJ	.
=6	=6	=6
8BB-\L	16ff\LK	.
.	8gg\	.
8F\ 8B-\ 8d\J	.	.
.	16ff\Jk	.
8FF\L	8dd\L	.
8F\ 8d\ 8f\J	8b-\J	.
=7	=7	=7
8G\ 8d\L	16b-\LK	.
.	8dd\	.
8G\ 8B-\ 8d\J	.	.
.	16b-\Jk	.
8D\ 8F#\ 8A\ 8d\L	8f#/ 8a/L	.
8D\ 8F#\ 8A\ 8d\J	16f#/ 16dd/L	.
.	[16g/JJ	.
=8	=8	=8
8G\ 8B-\ 8d\L	4g/]	.
8G\ 8B-\ 8d\J	.	.
8G\ 8B-\ 8d\L	16r	.
.	8b-/L	.
8G\ 8d\J	.	.
.	16g/Jk	.
=9	=9	=9
8EE-/ 8E-/L	16b-\LL	.
.	16cc\	.
8FF/ 8F/J	16b-\	.
.	16g\JJ	.
8GG\ 8G\L	16b-\LL	.
.	16cc\	.
8AA\ 8A\J	16b-\	.
.	16g\JJ	.
=10	=10	=10
8BB-\ 8B-\L	16b-/LK	.
.	8f/ 8dd/	.
8F\ 8B-\ 8d\J	.	.
.	16b-/Jk	.
8GG\ 8G\L	4g\ 4dd\	.
8G\ 8B-\ 8d\J	.	.
=11	=11	=11
8C\L	16cc\LK	.
.	8cc\ 8bb-\	.
8B-\ 8c\ 8en\J	.	.
.	[16cc\ [16aa\Jk	.
8C\L	16cc\] 16aa\LL]	.
.	16een\J	.
8B-\ 8c\ 8e\J	8cc\ 8gg\J	.
=12	=12	=12
8FF/ 8F/L	16ee-\ 16ccc\LL	.
.	16ff\	.
8FF#/ 8F#/J	16ee-\ 16aa\	.
.	16ff\JJ	.
8GG\ 8G\L	16gg\LK	.
.	8ee-\ 8aa\	.
8AA\ 8A\J	.	.
.	16ff\Jk	.
=13	=13	=13
8BB-\ 8B-\L	16dd\ 16bb-\LK	.
.	8dd\ 8bb-\	.
8F\ 8B-\ 8d\J	.	.
.	16ff\Jk	.
8FF\L	16aa\LL	.
.	16gg\	.
8F\ 8B-\ 8d\J	16ff\	.
.	16dd\JJ	.
=14	=14	=14
8BB-\L	16ff\LK	.
.	8gg\	.
8F\ 8B-\ 8d\J	.	.
.	16ff\Jk	.
8FF\L	8dd\L	.
8F\ 8B-\J	8b-\J	.
=15	=15	=15
8G\ 8B-\ 8d\L	16b-\LK	.
.	8dd\	.
8G\ 8B-\ 8d\J	.	.
.	16b-\Jk	.
8D\ 8F#\ 8A\ 8d\L	8f#/ 8a/L	.
8D\ 8F#\ 8A\ 8d\J	16f#/ 16dd/L	.
.	[16g/JJ	.
=16	=16	=16
8G\ 8B-\ 8d\L	4g/]	.
8G\ 8B-\ 8d\J	.	.
8G\ 8B-\ 8d\L	16r	.
.	8b-/L	.
8G\ 8B-\ 8d\J	.	.
.	16g/Jk	.
=17	=17	=17
8EE-/ 8E-/L	16b-\LL	.
.	16cc\	.
8FF/ 8F/J	16b-\	.
.	16g\JJ	.
8GG\ 8G\L	16b-\LL	.
.	16cc\	.
8AA\ 8A\J	16b-\	.
.	16g\JJ	.
=18	=18	=18
8BB-\ 8B-\L	16b-/LK	.
.	8f/ 8dd/	.
8F\ 8B-\ 8d\J	.	.
.	16b-/Jk	.
8GG\L	4f/ 4dd/	.
8F\ 8G\ 8Bn\J	.	.
=19	=19	=19
8C\L	16en/ 16g/LK	.
.	8.e/ 8.dd/J	.
8G\ 8B-\J	.	.
8F\L	16f/ 16a/LK	.
.	8f/ 8cc/	.
8A\ 8e-\J	.	.
.	[16f/ [16b-/Jk	.
=20	=20	=20
*>A1	*>A1	*>A1
8B-\ 8d\L	16f/] 16b-/LL]	.
.	(16f/	.
8F\ 8c\ 8e-\J	16g/	.
.	16a/JJ	.
8B-\ 8d\	16b-\LL	.
.	16cc\	.
8r	16dd\	.
.	16ff\JJ)	.
=21:|!	=21:|!	=21:|!
*>A2	*>A2	*>A2
8B-\ 8d\L	16f/ 16b-/LL	.
.	(16f/	.
8F\ 8c\ 8e-\J	16g/	.
.	16a/JJ	.
8B-\ 8d\	8b-/L)	.
8r	8f/J	.
=22!|:	=22!|:	=22!|:
*>B	*>B	*>B
8C\ 8c\L	16a\LK	.
.	8f\ 8ee-\	.
8F\ 8A\ 8e-\J	.	.
.	16cc\Jk	.
8FF\L	16dd\LL	.
.	16cc\	.
8F\ 8A\ 8e-\J	16a\	.
.	16f\JJ	.
=23	=23	=23
8C\L	16a\LK	.
.	8f\ 8ee-\	.
8F\ 8A\ 8e-\J	.	.
.	16cc\Jk	.
8FF\L	16dd\LL	.
.	16cc\	.
8F\ 8A\ 8e-\J	16a\	.
.	16f\JJ	.
=24	=24	=24
8BB-\L	16b-\LK	.
.	8dd\	.
8F\ 8B-\ 8d\J	.	.
.	16b-\Jk	.
8D\L	4g/	.
8F\ 8B-\ 8d\J	.	.
=25	=25	=25
8GG\ 8G\L	16r	.
.	8g\ 8b-\ 8dd\L	.
8G\ 8B-\ 8d\J	.	.
.	16cc\Jk	.
8GG\ 8G\L	16dd\LL	.
.	16cc\	.
8G\ 8B-\ 8d\J	16b-\	.
.	16g\JJ	.
=26	=26	=26
8DD\ 8D\L	16a\LK	.
.	8f#\ 8dd\	.
8F#\ 8c\ 8d\J	.	.
.	16cc\Jk	.
8DD\ 8D\L	[4f#/ [4a/	.
8F#\ 8c\ 8d\J	.	.
=27	=27	=27
8DD/ 8D/L	2f#/] 2a/]	.
16EE-/ 16E-/L	.	.
[16DD/ [16D/JJ	.	.
16DD/] 16D/LL]	.	.
16CC/ 16C/	.	.
16BBB-/ 16BB-/	.	.
16AAA/ 16AA/JJ	.	.
=28	=28	=28
8GGG\ 8GG\L	16b-\LK	.
.	8dd\	.
8G\ 8B-\ 8d\J	.	.
.	16b-\Jk	.
8BB-\L	4g/	.
8G\ 8B-\ 8d\J	.	.
=29	=29	=29
8GG\L	16r	.
.	8g\ 8b-\ 8dd\L	.
8G\ 8B-\ 8d\J	.	.
.	16cc\Jk	.
8G\ 8B-\ 8d\L	16dd\LL	.
.	16cc\	.
8G\ 8B-\ 8d\J	16b-\	.
.	16g\JJ	.
=30	=30	=30
8C\L	16a\LK	.
.	8f\ 8ee-\	.
8F\ 8A\ 8e-\J	.	.
.	16cc\Jk	.
8FF\L	16dd\LL	.
.	16cc\	.
8F\ 8A\ 8e-\J	16a\	.
.	16f\JJ	.
=31	=31	=31
8C\L	16a\LK	.
.	8f\ 8ee-\	.
8F\ 8A\ 8e-\J	.	.
.	16cc\Jk	.
8FF\L	16dd\LL	.
.	16cc\	.
8F\ 8A\ 8e-\J	16a\	.
.	16f\JJ	.
=32	=32	=32
8BB-\L	16b-\LK	.
.	8dd\	.
8F\ 8B-\ 8d\J	.	.
.	16b-\Jk	.
8D\L	4g/	.
8F\ 8B-\ 8d\J	.	.
=33	=33	=33
8GG\ 8G\L	16r	.
.	8g\ 8b-\ 8dd\L	.
8G\ 8B-\ 8d\J	.	.
.	16cc\Jk	.
8G\ 8B-\ 8d\L	16dd\LL	.
.	16cc\	.
8G\ 8B-\ 8d\J	16b-\	.
.	16g\JJ	.
=34	=34	=34
8EE-/ 8E-/L	16b-\LL	.
.	16cc\	.
8FF/ 8F/J	16b-\	.
.	16g\JJ	.
8GG\ 8G\L	16b-\LL	.
.	16cc\	.
8AA\ 8A\J	16b-\	.
.	16g\JJ	.
=35	=35	=35
8BB-\ 8B-\L	16b-\LK	.
.	8f\ 8dd\	.
8F\ 8B-\ 8d\J	.	.
.	16b-\Jk	.
8GG\L	4f/ 4dd/	.
8F\ 8G\ 8Bn\J	.	.
=36	=36	=36
8C\L	16en/ 16g/LK	.
.	8.e/ 8.dd/J	.
8G\ 8B-\J	.	.
8F\L	16f/ 16a/LK	.
.	8f/ 8cc/	.
8A\ 8e-\J	.	.
.	[16f/ [16b-/Jk	.
=37	=37	=37
*>B1	*>B1	*>B1
8B-\ 8d\	8f\] 8b-\L]	.
8r	8ff\J	.
8r	8ff\L	.
8BBn\ 8Bn\	8f\J	.
=38:|!	=38:|!	=38:|!
*>B2	*>B2	*>B2
8B-\ 8d\L	8f\ 8b-\L	.
8D\ 8d\J	8ff\J	.
8D-\ 8d-\L	8een\ 8gg\L	.
8C\ 8c\J	8ee\ 8aa\J	.
=39	=39	=39
*>C	*>C	*>C
*clefF4	*clefG2	*clefG2
8BB-\ 8B-\L	16dd\ 16bb-\LK	.
.	8dd\ 8bb-\	.
8F\ 8B-\ 8d\J	.	.
.	16ff\Jk	.
8FF\L	16aa\LL	.
.	16gg\	.
8F\ 8B-\ 8d\J	16ff\	.
.	16dd\JJ	.
=40	=40	=40
8BB-\L	16ff\LK	.
.	8gg\	.
8F\ 8B-\ 8d\J	.	.
.	16ff\Jk	.
8FF\L	8dd\L	.
8F\ 8B-\ 8d\J	8b-\J	.
=41	=41	=41
8G\ 8B-\ 8d\L	16b-\LK	.
.	8dd\	.
8G\ 8B-\ 8d\J	.	.
.	16b-\Jk	.
8D\ 8F#\ 8A\ 8d\L	8f#/ 8a/L	.
8D\ 8F#\ 8A\ 8d\J	16f#/ 16dd/L	.
.	[16g/JJ	.
=42	=42	=42
8G\ 8B-\ 8d\L	4g/]	.
8G\ 8B-\ 8d\J	.	.
8G\ 8B-\ 8d\L	16r	.
.	8b-/L	.
8G\ 8B-\ 8d\J	.	.
.	16g/Jk	.
=43	=43	=43
8EE-/ 8E-/L	16b-\LL	.
.	16cc\	.
8FF/ 8F/J	16b-\	.
.	16g\JJ	.
8GG\ 8G\L	16b-\LL	.
.	16cc\	.
8AA\ 8A\J	16b-\	.
.	16g\JJ	.
=44	=44	=44
8BB-\ 8B-\L	16b-/LK	.
.	8f/ 8dd/	.
8F\ 8B-\ 8d\J	.	.
.	16b-/Jk	.
8GG\ 8G\L	4g\ 4dd\	.
8G\ 8B-\ 8d\J	.	.
=45	=45	=45
8C\L	16cc\LK	.
.	8cc\ 8bb-\	.
8B-\ 8c\ 8en\J	.	.
.	[16cc\ [16aa\Jk	.
8C\L	16cc\] 16aa\LL]	.
.	16een\J	.
8B-\ 8c\ 8e\J	8cc\ 8gg\J	.
=46	=46	=46
8FF/ 8F/L	16ee-\ 16ccc\LL	.
.	16ff\	.
8FF#/ 8F#/J	16ee-\ 16aa\	.
.	16ff\JJ	.
8GG\ 8G\L	16gg\LK	.
.	8ee-\ 8aa\	.
8AA\ 8A\J	.	.
.	16ff\Jk	.
=47	=47	=47
8BB-\ 8B-\L	16dd\ 16bb-\LK	.
.	8dd\ 8bb-\	.
8F\ 8B-\ 8d\J	.	.
.	16ff\Jk	.
8FF\L	16aa\LL	.
.	16gg\	.
8F\ 8B-\ 8d\J	16ff\	.
.	16dd\JJ	.
=48	=48	=48
8BB-\L	16ff\LK	.
.	8gg\	.
8F\ 8B-\ 8d\J	.	.
.	16ff\Jk	.
8FF\L	8dd\L	.
8F\ 8B-\ 8d\J	8b-\J	.
=49	=49	=49
8G\ 8B-\ 8d\L	16b-\LK	.
.	8dd\	.
8G\ 8B-\ 8d\J	.	.
.	16b-\Jk	.
8D\ 8F#\ 8A\ 8d\L	8f#/ 8a/L	.
8D\ 8F#\ 8A\ 8d\J	16f#/ 16dd/L	.
.	[16g/JJ	.
=50	=50	=50
8G\ 8B-\ 8d\L	4g/]	.
8G\ 8B-\ 8d\J	.	.
8G\ 8B-\ 8d\L	16r	.
.	8b-/L	.
8G\ 8B-\ 8d\J	.	.
.	16g/Jk	.
=51	=51	=51
8EE-/ 8E-/L	16b-\LL	.
.	16cc\	.
8FF/ 8G/J	16b-\	.
.	16g\JJ	.
8GG\ 8G\L	16b-\LL	.
.	16cc\	.
8AA\ 8A\J	16b-\	.
.	16g\JJ	.
=52	=52	=52
8BB-\ 8B-\L	16b-/LK	.
.	8f/ 8dd/	.
8F\ 8B-\ 8d\J	.	.
.	16b-/Jk	.
8GG\L	4f/ 4dd/	.
8F\ 8G\ 8Bn\J	.	.
=53	=53	=53
8C\L	16en/ 16g/LK	.
.	8.e/ 8.dd/J	.
8B-\ 8d-\J	.	.
8F\L	16f/ 16a/LK	.
.	8f/ 8cc/	.
8A\ 8e-\J	.	.
.	[16f/ [16b-/Jk	.
=54	=54	=54
8B-\ 8d\L	16f/] 16b-/LL]	.
.	(16f/	.
8F\ 8c\ 8e-\J	16g/	.
.	16a/JJ	.
8B-\ 8d\L	8b-\L)	.
16BB-\ 16B-\L	16bb-\L	.
16C\ 16c\JJ	16aa\JJ	.
=55	=55	=55
*>D	*>D	*>D
*k[b-e-a-]	*k[b-e-a-]	*k[b-e-a-]
8D\ 8d\L	8aa-\L	p
8A-\ 8B-\ 8d\J	16ff\L	.
.	[16ff\JJ	.
8BB-\L	16ff\LL]	.
.	16cc\	.
8A-\ 8B-\ 8d\J	16dd\	.
.	16ee-\JJ	.
=56	=56	=56
8F\L	8a-\ 8dd\ 8gg\L	.
8A-\ 8B-\ 8d\J	16a-\ 16dd\ 16ff\L	.
.	[16a-\ [16dd\ [16ff\JJ	.
8BB-\L	16a-\] 16dd\] 16ff\LL]	.
.	16b-\	.
8A-\ 8B-\ 8d\J	16cc\	.
.	16dd\JJ	.
=57	=57	=57
8E-\L	8g\ 8ff\L	.
8G\ 8B-\ 8e-\J	16g\ 16ee-\L	.
.	[16g\ [16ee-\JJ	.
8BB-\L	16g\] 16ee-\LL]	.
.	16g\	.
8G\ 8B-\ 8e-\J	16a-\	.
.	16b-\JJ	.
=58	=58	=58
8E-\L	8g/ 8cc/L	.
8G\ 8B-\ 8e-\J	16g/ 16b-/L	.
.	[16g/ [16b-/JJ	.
8BB-\L	16g/] 16b-/LL]	.
.	16g/	.
8G\ 8B-\ 8e-\J	16f/	.
.	16e-/JJ	.
=59	=59	=59
8F\L	16r	.
.	16d/LL	.
8A-\ 8B-\ 8d\J	16f/	.
.	16a-/JJ	.
8BB-\L	16dd\LK	.
.	8a-\ 8cc\	.
8A-\ 8B-\ 8d\J	.	.
.	16dd\Jk	.
=60	=60	=60
8F\L	8a-\ 8cc\L	.
8A-\ 8B-\ 8d\J	16a-\ 16cc\L	.
.	[16a-\ [16cc\JJ	.
8BB-\L	16a-/] 16cc/LL]	.
.	16b-/	.
8A-\ 8B-\ 8d\J	16a-/	.
.	16f/JJ	.
=61	=61	=61
8E-\L	16r	.
.	16e-/LL	.
8G\ 8B-\ 8e-\J	16g/	.
.	16b-/JJ	.
8BB-\L	16ee-\LK	.
.	8g\ 8cc\	.
8G\ 8B-\ 8e-\J	.	.
.	16ee-\Jk	.
=62	=62	=62
8E-\L	8g/ 8cc/L	.
8G\ 8B-\ 8e-\J	16g/ 16b-/L	.
.	[16g/ [16b-/JJ	.
8G\ 8B-\ 8e-\L	8g\] 8b-\L]	.
16BB-\ 16B-\L	16bb-\L	.
16C\ 16c\JJ	16aan\JJ	.
=63	=63	=63
8D\ 8d\L	8aa-\L	.
8A-\ 8B-\ 8d\J	16ff\L	.
.	[16ff\JJ	.
8BB-\L	16ff\LL]	.
.	16cc\	.
8A-\ 8B-\ 8d\J	16dd\	.
.	16ee-\JJ	.
=64	=64	=64
8F\L	8a-\ 8dd\ 8gg\L	.
8A-\ 8B-\ 8d\J	16a-\ 16dd\ 16ff\L	.
.	[16a-\ [16dd\ [16ff\JJ	.
8BB-\L	16a-\] 16dd\] 16ff\LL]	.
.	16b-\	.
8A-\ 8B-\ 8d\J	16cc\	.
.	16dd\JJ	.
=65	=65	=65
8E-\L	8g\ 8ff\L	.
8G\ 8B-\ 8e-\J	16g\ 16ee-\L	.
.	[16g\ [16ee-\JJ	.
8BB-\L	16g/] 16ee-/LL]	.
.	16g/	.
8G\ 8B-\ 8e-\J	16a-/	.
.	16b-/JJ	.
=66	=66	=66
8E-\L	8g/ 8cc/L	.
8G\ 8B-\ 8e-\J	16g/ 16b-/L	.
.	[16g/ [16b-/JJ	.
8BB-\L	16g\] 16b-\LL]	.
.	16b-\	.
8G\ 8B-\ 8e-\J	16ee-\	.
.	16gg\JJ	.
=67	=67	=67
8CC\ 8C\L	16r	.
.	16een\LL	<
8B-\ 8c\ 8en\J	16gg\	.
.	16bb-\JJ	.
8EEn\ 8En\L	16ddd-\LK	.
.	8ccc\	.
8B-\ 8c\ 8e\J	.	.
.	[16cc\ [16bb-\Jk	.
=68	=68	=68
8FF/ 8F/L	16cc\] 16bb-\LL]	.
.	16aa-\J	.
8GG/ 8G/J	8b-\ 8cc\ 8een\J	.
8AA-\ 8A-\L	8a-\ 8cc\ 8ff\L	.
8AAn\ 8An\J	8cc\ 8ee\ 8ff#\J	.
=69	=69	=69
8BB-\ 8B-\L	16gg\LK	>
.	8bb-\	.
8G\ 8B-\ 8e-\J	.	.
.	16gg\Jk	.
8CC/ 8C/L	8an\ 8ee-\ 8ff\L	.
8DD/ 8D/J	16a-\ 16ff\L	.
.	[16g\ [16ee-\JJ	.
=70	=70	=70
*>D1	*>D1	*>D1
8EE-\ 8E-\L	16g\] 16ee-\LK]	.
.	8gg\	.
8G\ 8B-\ 8e-\J	.	.
.	16ccc\Jk	.
8G\ 8B-\ 8e-\L	8bb-\L	.
16BB-\ 16B-\L	16bb-\L	.
16C\ 16c\JJ	16aan\JJ	.
=71:|!	=71:|!	=71:|!
*>D2	*>D2	*>D2
8EE-/ 8E-/L	8g\ 8ee-\L	.
8BBB-/ 8BB-/J	8dd\ 8aa-\ 8bb-\J	.
8EEE-/ 8EE-/	8ee-\ 8gg\ 8bb-\ 8eee-\L	.
8r	8f\J	.
=72	=72	=72
*>E	*>E	*>E
*k[b-e-]	*k[b-e-]	*k[b-e-]
8BB-\L	16ff\LK	f
.	8f\ 8b-\ 8dd\	.
8F\ 8B-\ 8d\J	.	.
.	16ff\Jk	.
8FF\L	4f/ 4b-/ 4dd/	.
8F\ 8B-\ 8d\J	.	.
=73	=73	=73
8BB-\L	16ff\LK	.
.	8f\ 8b-\ 8dd\	.
8F\ 8B-\ 8d\J	.	.
.	16ff\Jk	.
8FF\L	8.f/ 8.b-/ 8.dd/L	.
8F\ 8B-\ 8d\J	.	.
.	[16g/ [16b-/Jk	.
=74	=74	=74
8EE-/ 8E-/L	16g\] 16b-\LL]	.
.	16cc\	.
8FF/ 8F/J	16g\ 16dd\	.
.	16b-\JJ	.
8GG\ 8G\L	16g\ 16cc\LL	.
.	16dd\	.
8AA\ 8A\J	16g\ 16cc\	.
.	[16f\ [16b-\JJ	.
=75	=75	=75
8BB-\ 8B-\L	4f/_ 4b-/_	.
8F\ 8B-\ 8d\J	.	.
8FF\L	8.f/] 8.b-/L]	.
8F\ 8B-\ 8d\J	.	.
.	16f/Jk	.
=76	=76	=76
8BB-\L	16ff\LK	.
.	8f\ 8b-\ 8dd\	.
8F\ 8B-\ 8d\J	.	.
.	16ff\Jk	.
8FF\L	4f/ 4b-/ 4dd/	.
8F\ 8B-\ 8d\J	.	.
=77	=77	=77
8BB-\L	16ff\LK	.
.	8f\ 8b-\ 8dd\	.
8F\ 8B-\ 8d\J	.	.
.	16ff\Jk	.
8FF\L	8.f/ 8.b-/ 8.dd/L	.
8F\ 8B-\ 8d\J	.	.
.	[16en/ [16g/Jk	<
=78	=78	=78
8C\L	8en/] 8g/L]	.
8G\ 8B-\J	8e/ 8dd/J	.
8C\L	16e/ 16cc/LK	.
.	8e/ 8dd/	.
8G\ 8B-\J	.	.
.	[16f/ [16a/ [16cc/Jk	.
=79	=79	=79
8FF/ 8F/L	8f\] 8a\] 8cc\L]	.
8FF/ 8F/J	8f\ 8ff\J	>
8GG\ 8G\L	8en\ 8een\L	.
8AA\ 8A\J	8e-\ 8ee-\J	.
=80	=80	=80
8BB-\L	16ff\LK	f
.	8f\ 8b-\ 8dd\	.
8F\ 8B-\ 8d\J	.	.
.	16ff\Jk	.
8FF\L	4f/ 4b-/ 4dd/	.
8F\ 8B-\ 8d\J	.	.
=81	=81	=81
8BB-\L	16ff\LK	.
.	8f\ 8b-\ 8dd\	.
8F\ 8B-\ 8d\J	.	.
.	16ff\Jk	.
8FF\L	8.f/ 8.b-/ 8.dd/L	.
8F\ 8B-\ 8d\J	.	.
.	[16g/ [16b-/Jk	.
=82	=82	=82
8EE-/ 8E-/L	16g/] 16b-/LL]	.
.	16cc/J	.
8EE-/ 8E-/J	8g/ 8b-/J	.
8EE-/ 8E-/L	16g/ 16cc/LL	.
.	16b-/	.
8EE-/ 8E-/J	16g/ 16cc/	.
.	[16f#/ [16dd/JJ	.
=83	=83	=83
8DD/ 8D/L	4f#/_ 4dd/_	.
8AA/ 8A/J	.	.
8FF#/ 8F#/L	8.f#/] 8.dd/L]	.
8DD/ 8D/J	.	.
.	16b-/Jk	.
=84	=84	=84
8BB-\ 8B-\L	16dd\LL	.
.	16b-\	.
8AA-\ 8A-\J	16cc\	.
.	16dd\JJ	.
8GG\ 8G\L	16cc\LL	.
.	16b-\	.
8FF\ 8F\J	16a-\	.
.	16dd\JJ	.
=85	=85	=85
8EE-\ 8E-\L	8g\ 8ee-\L	.
8E-\ 8G\ 8c\J	16dd\L	.
.	[16cc\JJ	.
8EEn\ 8En\L	16cc\LL]	.
.	16b-\	.
8E\ 8B-\ 8c#\J	16g\	.
.	16b-\JJ	.
=86	=86	=86
8FF\ 8F\L	16f\LK	.
.	8f\ 8ff\	.
8F\ 8B-\ 8d\J	.	.
.	16f\ 16dd\Jk	.
8GG\ 8G\L	8en\ 8b-\ 8cc\L	.
8AA\ 8A\J	16e-\ 16cc\L	.
.	[16d\ [16b-\JJ	.
=87	=87	=87
*>E1	*>E1	*>E1
8BB-\ 8B-\L	16d\] 16b-\LK]	.
.	8.f\ 8.ff\J	.
8F\ 8B-\ 8d\J	.	.
8F\ 8B-\ 8d\L	8f\ 8ff\L	.
8F\ 8c\ 8e-\J	8f\ 8a\ 8ff\J	.
=88:|!	=88:|!	=88:|!
*>E2	*>E2	*>E2
8BB-\ 8B-\L	16d\ 16b-\LL	.
.	16b-\	.
8FF\ 8F\J	16dd\	.
.	16ff\JJ	.
8BBB-/ 8BB-/	8b-\ 8bb-\	.
8r	8r	.
=	=	=
*-	*-	*-
!!!ENC: Craig Stuart Sapp
!!!END: 2005/04/08/
